X:36
T:Dinny Delaney's
M:12/8
L:1/8
K:G
A2 D DED A2 G E2 G|A2 D DED G2 A GED|\
A2 D DED c2 d e2 d|dcA AGE G2 A GED||
dcA AGE c3 ABc|dcA AGE G2 A GED|\
dcA AGE c2 d e2 d|dcA AGE G2 A GED ||
A2 D DED A2 B G2 B|A2 B G2 A E3 GED|\
A2 D DED c2 d e2 d|dcA AGE G2 A GED |>|
